symbols/web/soup_kitchen/materialsymbolsoutlined/soup_kitchen_wght600grad200_20px.svg

<svg xmlns="http://www.w3.org/2000/svg" height="20" width="20"><path d="M3.104 11.146q.292-.438.438-.813.146-.375.146-.75 0-.791-.417-1.479-.417-.687-.417-1.542 0-.312.094-.666.094-.354.385-.771h1.959q-.334.479-.448.823-.115.344-.115.614 0 .709.417 1.448.416.74.416 1.573 0 .375-.135.782-.135.406-.365.781Zm5.604 0q.292-.438.438-.813.146-.375.146-.75 0-.791-.417-1.479-.417-.687-.417-1.542 0-.312.094-.666.094-.354.386-.771h1.958q-.334.479-.458.823-.126.344-.126.614 0 .709.417 1.448.417.74.417 1.573 0 .375-.115.782-.114.406-.364.781Zm-2.791 0q.271-.438.416-.813.146-.375.146-.75 0-.791-.417-1.479-.416-.687-.416-1.542 0-.312.094-.666.093-.354.406-.771h1.958q-.354.479-.469.823-.114.344-.114.614 0 .709.417 1.448.416.74.416 1.573 0 .375-.125.782-.125.406-.354.781Zm2.208 7.625q-2.292 0-4.125-1.542-1.833-1.541-1.938-3.812-.041-.584.313-.99t1-.406h8.229l.896-8.146q.104-1.146.948-1.896t2.01-.75q1.25 0 2.115.865.865.864.865 2.114 0 .313-.084 1.063l-.083.75-2.583-.354.062-.646q.062-.646.062-.813 0-.146-.104-.25-.104-.104-.25-.104-.146 0-.239.094-.094.094-.115.219l-.958 9.021q-.25 2.354-1.948 3.968-1.698 1.615-4.073 1.615Zm0-2.625q.854 0 1.573-.396t1.219-1.104H5.312q.48.708 1.219 1.104.74.396 1.594.396Zm0-1.5Z"/></svg>

<svg xmlns="http://www.w3.org/2000/svg" height="20" width="20"><path d="M3.104 11.146Q3.396 10.708 3.542 10.333Q3.688 9.958 3.688 9.583Q3.688 8.792 3.271 8.104Q2.854 7.417 2.854 6.562Q2.854 6.25 2.948 5.896Q3.042 5.542 3.333 5.125H5.292Q4.958 5.604 4.844 5.948Q4.729 6.292 4.729 6.562Q4.729 7.271 5.146 8.01Q5.562 8.75 5.562 9.583Q5.562 9.958 5.427 10.365Q5.292 10.771 5.062 11.146ZM8.708 11.146Q9 10.708 9.146 10.333Q9.292 9.958 9.292 9.583Q9.292 8.792 8.875 8.104Q8.458 7.417 8.458 6.562Q8.458 6.25 8.552 5.896Q8.646 5.542 8.938 5.125H10.896Q10.562 5.604 10.438 5.948Q10.312 6.292 10.312 6.562Q10.312 7.271 10.729 8.01Q11.146 8.75 11.146 9.583Q11.146 9.958 11.031 10.365Q10.917 10.771 10.667 11.146ZM5.917 11.146Q6.188 10.708 6.333 10.333Q6.479 9.958 6.479 9.583Q6.479 8.792 6.062 8.104Q5.646 7.417 5.646 6.562Q5.646 6.25 5.74 5.896Q5.833 5.542 6.146 5.125H8.104Q7.75 5.604 7.635 5.948Q7.521 6.292 7.521 6.562Q7.521 7.271 7.938 8.01Q8.354 8.75 8.354 9.583Q8.354 9.958 8.229 10.365Q8.104 10.771 7.875 11.146ZM8.125 18.771Q5.833 18.771 4 17.229Q2.167 15.688 2.062 13.417Q2.021 12.833 2.375 12.427Q2.729 12.021 3.375 12.021H11.604L12.5 3.875Q12.604 2.729 13.448 1.979Q14.292 1.229 15.458 1.229Q16.708 1.229 17.573 2.094Q18.438 2.958 18.438 4.208Q18.438 4.521 18.354 5.271Q18.271 6.021 18.271 6.021L15.688 5.667Q15.688 5.667 15.75 5.021Q15.812 4.375 15.812 4.208Q15.812 4.062 15.708 3.958Q15.604 3.854 15.458 3.854Q15.312 3.854 15.219 3.948Q15.125 4.042 15.104 4.167L14.146 13.188Q13.896 15.542 12.198 17.156Q10.5 18.771 8.125 18.771ZM8.125 16.146Q8.979 16.146 9.698 15.75Q10.417 15.354 10.917 14.646H5.312Q5.792 15.354 6.531 15.75Q7.271 16.146 8.125 16.146ZM8.125 14.646Q8.125 14.646 8.125 14.646Q8.125 14.646 8.125 14.646Q8.125 14.646 8.125 14.646Q8.125 14.646 8.125 14.646Z"/></svg>
